images/indikatorenset/5887.svg

<?xml version="1.0" standalone="no"?><!DOCTYPE svg PUBLIC "-//W3C//DTD SVG 1.1//EN" "http://www.w3.org/Graphics/SVG/1.1/DTD/svg11.dtd"><svg xmlns:xlink="http://www.w3.org/1999/xlink" version="1.1" class="highcharts-root" style="font-family:arial;font-size:12px;" xmlns="http://www.w3.org/2000/svg" viewBox="0 0 320 208"><desc>Created with Highstock 5.0.14</desc><defs><clipPath id="highcharts-vamkl6x-6"><rect x="0" y="0" width="285" height="136" fill="none"></rect></clipPath><clipPath id="highcharts-vamkl6x-7"><rect x="0" y="0" width="285" height="136" fill="none"></rect></clipPath></defs><rect fill="#fbfbfb" class="highcharts-background" x="0" y="0" width="320" height="208" rx="0" ry="0"></rect><rect fill="none" class="highcharts-plot-background" x="32" y="43" width="285" height="136"></rect><g class="highcharts-pane-group"></g><g class="highcharts-grid highcharts-xaxis-grid "><path fill="none" class="highcharts-grid-line" d="M 34.5 43 L 34.5 179" opacity="1"></path><path fill="none" class="highcharts-grid-line" d="M 90.5 43 L 90.5 179" opacity="1"></path><path fill="none" class="highcharts-grid-line" d="M 146.5 43 L 146.5 179" opacity="1"></path><path fill="none" class="highcharts-grid-line" d="M 201.5 43 L 201.5 179" opacity="1"></path><path fill="none" class="highcharts-grid-line" d="M 257.5 43 L 257.5 179" opacity="1"></path><path fill="none" class="highcharts-grid-line" d="M 313.5 43 L 313.5 179" opacity="1"></path></g><g class="highcharts-grid highcharts-yaxis-grid "><path fill="none" stroke="#B9CFD7" stroke-width="0.5" class="highcharts-grid-line" d="M 32 179.25 L 317 179.25" opacity="1"></path><path fill="none" stroke="#B9CFD7" stroke-width="0.5" class="highcharts-grid-line" d="M 32 134.25 L 317 134.25" opacity="1"></path><path fill="none" stroke="#B9CFD7" stroke-width="0.5" class="highcharts-grid-line" d="M 32 88.25 L 317 88.25" opacity="1"></path><path fill="none" stroke="#B9CFD7" stroke-width="0.5" class="highcharts-grid-line" d="M 32 42.75 L 317 42.75" opacity="1"></path></g><rect fill="none" class="highcharts-plot-border" x="32" y="43" width="285" height="136"></rect><g class="highcharts-axis highcharts-xaxis "><path fill="none" class="highcharts-axis-line" stroke="#B9CFD7" stroke-width="0.5" d="M 32 179.25 L 317 179.25"></path></g><g class="highcharts-axis highcharts-yaxis "><path fill="none" class="highcharts-axis-line" d="M 32 43 L 32 179"></path></g><g class="highcharts-series-group"><g class="highcharts-series highcharts-series-0 highcharts-line-series highcharts-color-undefined " transform="translate(32,43) scale(1 1)" clip-path="url(#highcharts-vamkl6x-7)"><path fill="none" d="M 2.7941176470563 16.51913477543998 L 58.676470588234 23.11914169697333 L 114.55882352941 23.347631559466663 L 170.44117647059 24.39220532783999 L 226.32352941177 26.053872600853325 L 282.20588235294 22.987495417826665" class="highcharts-graph" stroke="#8b2223" stroke-width="2" stroke-linejoin="round" stroke-linecap="round"></path></g><g class="highcharts-markers highcharts-series-0 highcharts-line-series highcharts-color-undefined " transform="translate(32,43) scale(1 1)" clip-path="none"><path fill="#8b2223" d="M 6 17 A 4 4 0 1 1 5.999998000000167 16.996000000666665 Z" class="highcharts-point"></path><path fill="#8b2223" d="M 62 23 A 4 4 0 1 1 61.99999800000017 22.996000000666665 Z" class="highcharts-point"></path><path fill="#8b2223" d="M 118 23 A 4 4 0 1 1 117.99999800000016 22.996000000666665 Z" class="highcharts-point"></path><path fill="#8b2223" d="M 174 24 A 4 4 0 1 1 173.99999800000018 23.996000000666665 Z" class="highcharts-point"></path><path fill="#8b2223" d="M 230 26 A 4 4 0 1 1 229.99999800000018 25.996000000666665 Z" class="highcharts-point"></path><path fill="#8b2223" d="M 286 23 A 4 4 0 1 1 285.9999980000002 22.996000000666665 Z" class="highcharts-point"></path></g></g><text x="3" text-anchor="start" class="highcharts-title" style="color:#000000;font-size:10px;font-weight:bold;fill:#000000;" y="22"><tspan>Anzahl privater Personenwagen pro Haushalt</tspan></text><g class="highcharts-data-labels highcharts-series-0 highcharts-line-series highcharts-color-undefined " visibility="visible" transform="translate(32,43) scale(1 1)"><g class="highcharts-label highcharts-data-label highcharts-data-label-color-undefined " transform="translate(-5,17)"><text x="5" style="font-size:10px;font-weight:normal;color:#000000;fill:#000000;" y="15"><tspan x="5" y="15" class="highcharts-text-outline" fill="#FFFFFF" stroke="#FFFFFF" stroke-width="2px" stroke-linejoin="round" style="">2010:</tspan><tspan x="5" dy="13" class="highcharts-text-outline" fill="#FFFFFF" stroke="#FFFFFF" stroke-width="2px" stroke-linejoin="round" style="">0,53</tspan><tspan x="5" y="15">2010:</tspan><tspan x="5" dy="13">0,53</tspan></text></g><g class="highcharts-label highcharts-data-label highcharts-data-label-color-undefined " transform="translate(54,13)"><text x="5" style="font-size:10px;font-weight:normal;color:#000000;fill:#000000;" y="15"></text></g><g class="highcharts-label highcharts-data-label highcharts-data-label-color-undefined " transform="translate(110,13)"><text x="5" style="font-size:10px;font-weight:normal;color:#000000;fill:#000000;" y="15"></text></g><g class="highcharts-label highcharts-data-label highcharts-data-label-color-undefined " transform="translate(165,14)"><text x="5" style="font-size:10px;font-weight:normal;color:#000000;fill:#000000;" y="15"></text></g><g class="highcharts-label highcharts-data-label highcharts-data-label-color-undefined " transform="translate(221,16)"><text x="5" style="font-size:10px;font-weight:normal;color:#000000;fill:#000000;" y="15"></text></g><g class="highcharts-label highcharts-data-label highcharts-data-label-color-undefined " transform="translate(255,23)"><text x="5" style="font-size:10px;font-weight:normal;color:#000000;fill:#000000;" y="15"><tspan x="5" y="15" class="highcharts-text-outline" fill="#FFFFFF" stroke="#FFFFFF" stroke-width="2px" stroke-linejoin="round" style="">2015:</tspan><tspan x="5" dy="13" class="highcharts-text-outline" fill="#FFFFFF" stroke="#FFFFFF" stroke-width="2px" stroke-linejoin="round" style="">0,50</tspan><tspan x="5" y="15">2015:</tspan><tspan x="5" dy="13">0,50</tspan></text></g></g><g class="highcharts-axis-labels highcharts-xaxis-labels "><text x="34.79411764705633" style="color:#000000;cursor:default;font-size:10;fill:#000000;" text-anchor="middle" transform="translate(0,0)" y="199" opacity="1">2010</text><text x="90.6764705882338" style="color:#000000;cursor:default;font-size:10;fill:#000000;" text-anchor="middle" transform="translate(0,0)" y="199" opacity="1">2011</text><text x="146.55882352941126" style="color:#000000;cursor:default;font-size:10;fill:#000000;" text-anchor="middle" transform="translate(0,0)" y="199" opacity="1">2012</text><text x="202.44117647058874" style="color:#000000;cursor:default;font-size:10;fill:#000000;" text-anchor="middle" transform="translate(0,0)" y="199" opacity="1">2013</text><text x="258.32352941176623" style="color:#000000;cursor:default;font-size:10;fill:#000000;" text-anchor="middle" transform="translate(0,0)" y="199" opacity="1">2014</text><text x="305.90625" style="color:#000000;cursor:default;font-size:10;fill:#000000;" text-anchor="middle" transform="translate(0,0)" y="199" opacity="1">2015</text></g><g class="highcharts-axis-labels highcharts-yaxis-labels "><text x="17" style="color:#000000;cursor:default;font-size:10;fill:#000000;" text-anchor="end" transform="translate(0,0)" y="185" opacity="1"><tspan>0.0</tspan></text><text x="17" style="color:#000000;cursor:default;font-size:10;fill:#000000;" text-anchor="end" transform="translate(0,0)" y="139" opacity="1"><tspan>0.2</tspan></text><text x="17" style="color:#000000;cursor:default;font-size:10;fill:#000000;" text-anchor="end" transform="translate(0,0)" y="94" opacity="1"><tspan>0.4</tspan></text><text x="17" style="color:#000000;cursor:default;font-size:10;fill:#000000;" text-anchor="end" transform="translate(0,0)" y="49" opacity="1"><tspan>0.6</tspan></text></g><text x="10" class="highcharts-credits" text-anchor="start" style="cursor:default;color:#000000;font-size:10px;fill:#000000;" y="193"><tspan>Quelle: Statistisches Amt Basel-Stadt; Motorfahrzeugkontrolle Basel-Stadt</tspan></text></svg>

<svg class="highcharts-root" xmlns="http://www.w3.org/2000/svg" viewBox="0 0 320 208" font-family="arial" font-size="12">
    <defs>
        <clipPath id="a">
            <path fill="none" d="M0 0h285v136H0z"/>
        </clipPath>
    </defs>
    <rect fill="#fbfbfb" class="highcharts-background" width="320" height="208" rx="0" ry="0"/>
    <path fill="none" class="highcharts-plot-background" d="M32 43h285v136H32z"/>
    <g class="highcharts-grid highcharts-xaxis-grid">
        <path fill="none" class="highcharts-grid-line" d="M34.5 43v136m56-136v136m56-136v136m55-136v136m56-136v136m56-136v136"/>
    </g>
    <g class="highcharts-grid highcharts-yaxis-grid">
        <path fill="none" stroke="#B9CFD7" stroke-width=".5" class="highcharts-grid-line" d="M32 179.25h285m-285-45h285m-285-46h285M32 42.75h285"/>
    </g>
    <path fill="none" class="highcharts-plot-border" d="M32 43h285v136H32z"/>
    <g class="highcharts-axis highcharts-xaxis">
        <path fill="none" class="highcharts-axis-line" stroke="#B9CFD7" stroke-width=".5" d="M32 179.25h285"/>
    </g>
    <g class="highcharts-axis highcharts-yaxis">
        <path fill="none" class="highcharts-axis-line" d="M32 43v136"/>
    </g>
    <g class="highcharts-series-group">
        <g class="highcharts-series highcharts-series-0 highcharts-line-series highcharts-color-undefined" transform="translate(32 43)" clip-path="url(#a)">
            <path fill="none" d="M2.794 16.52l55.882 6.6 55.883.228 55.882 1.044 55.883 1.662 55.882-3.067" class="highcharts-graph" stroke="#8b2223" stroke-width="2" stroke-linejoin="round" stroke-linecap="round"/>
        </g>
        <g class="highcharts-markers highcharts-series-0 highcharts-line-series highcharts-color-undefined">
            <path fill="#8b2223" d="M38 60a4 4 0 1 1 0-.004zm56 6a4 4 0 1 1 0-.004zm56 0a4 4 0 1 1 0-.004zm56 1a4 4 0 1 1 0-.004zm56 2a4 4 0 1 1 0-.004zm56-3a4 4 0 1 1 0-.004z" class="highcharts-point"/>
        </g>
    </g>
    <text x="3" class="highcharts-title" y="22" color="#000" font-size="10" font-weight="700">
        <tspan>Anzahl privater Personenwagen pro Haushalt</tspan>
    </text>
    <g class="highcharts-data-labels highcharts-series-0 highcharts-line-series highcharts-color-undefined">
        <text x="5" y="15" font-size="10" font-weight="400" color="#000" transform="translate(27 60)" class="highcharts-label highcharts-data-label highcharts-data-label-color-undefined">
            <tspan x="5" y="15" class="highcharts-text-outline" fill="#FFF" stroke="#FFF" stroke-width="2" stroke-linejoin="round">2010:</tspan><tspan x="5" dy="13" class="highcharts-text-outline" fill="#FFF" stroke="#FFF" stroke-width="2" stroke-linejoin="round">0,53</tspan><tspan x="5" y="15">2010:</tspan><tspan x="5" dy="13">0,53</tspan>
        </text>
        <text x="5" y="15" font-size="10" font-weight="400" color="#000" transform="translate(287 66)" class="highcharts-label highcharts-data-label highcharts-data-label-color-undefined">
            <tspan x="5" y="15" class="highcharts-text-outline" fill="#FFF" stroke="#FFF" stroke-width="2" stroke-linejoin="round">2015:</tspan><tspan x="5" dy="13" class="highcharts-text-outline" fill="#FFF" stroke="#FFF" stroke-width="2" stroke-linejoin="round">0,50</tspan><tspan x="5" y="15">2015:</tspan><tspan x="5" dy="13">0,50</tspan>
        </text>
    </g>
    <g class="highcharts-axis-labels highcharts-xaxis-labels" text-anchor="middle" color="#000" cursor="default" font-size="10">
        <text x="34.794" y="199">
            2010
        </text>
        <text x="90.676" y="199">
            2011
        </text>
        <text x="146.559" y="199">
            2012
        </text>
        <text x="202.441" y="199">
            2013
        </text>
        <text x="258.324" y="199">
            2014
        </text>
        <text x="305.906" y="199">
            2015
        </text>
    </g>
    <g class="highcharts-axis-labels highcharts-yaxis-labels" text-anchor="end" color="#000" cursor="default" font-size="10">
        <text x="17" y="185">
            <tspan>0.0</tspan>
        </text>
        <text x="17" y="139">
            <tspan>0.2</tspan>
        </text>
        <text x="17" y="94">
            <tspan>0.4</tspan>
        </text>
        <text x="17" y="49">
            <tspan>0.6</tspan>
        </text>
    </g>
    <text x="10" class="highcharts-credits" y="193" cursor="default" color="#000" font-size="10">
        <tspan>Quelle: Statistisches Amt Basel-Stadt; Motorfahrzeugkontrolle Basel-Stadt</tspan>
    </text>
</svg>
